img/svg/facebook-text-icon.svg

<svg width="150" height="30" viewBox="0 0 150 30" fill="none" xmlns="http://www.w3.org/2000/svg">
<g clip-path="url(#clip0_211_586)">
<path d="M11.7495 4.5822C9.99062 4.5822 9.46294 5.35613 9.46294 7.07986V9.9293H14.1768L13.7195 14.5728H9.46294V28.6089H3.79925V14.5728H0V9.96447H3.79925V7.18539C3.79925 2.47151 5.69887 0.0090332 10.9404 0.0090332C12.031 0.0090332 13.1567 0.0793897 14.2472 0.220103V4.5822" fill="#20484F"/>
<path d="M14.5637 18.6887C14.5637 13.4823 17.0262 9.54236 22.2326 9.54236C25.0469 9.54236 26.7706 10.9847 27.6149 12.8139V9.9645H33.0324V28.6441H27.5797V25.8299C26.8058 27.624 25.0117 29.0311 22.1974 29.0311C17.0262 29.0311 14.5286 25.1263 14.5286 19.8848L14.5637 18.6887ZM20.2274 19.9551C20.2274 22.7342 21.2476 24.5986 23.886 24.5986C26.2078 24.5986 27.3686 22.9101 27.3686 20.2365V18.3369C27.3686 15.6634 26.1726 13.9748 23.886 13.9748C21.2476 13.9748 20.2274 15.8041 20.2274 18.6183V19.9551Z" fill="#20484F"/>
<path d="M44.7818 9.54236C46.9628 9.54236 49.0735 9.99968 50.1992 10.8088L48.9328 14.8191C47.7719 14.2562 46.4703 13.9748 45.1687 13.9748C42.1082 13.9748 40.7714 15.7337 40.7714 18.7591V19.8496C40.7714 22.8749 42.1082 24.6338 45.1687 24.6338C46.4703 24.6338 47.7719 24.3172 48.9328 23.7544L50.1992 27.7647C49.0735 28.5386 46.998 29.0311 44.7818 29.0311C38.1331 29.0311 35.1429 25.4781 35.1429 19.744V18.8646C35.1429 13.1305 38.1331 9.54236 44.7818 9.54236Z" fill="#20484F"/>
<path d="M50.938 19.9903V18.3369C50.938 13.025 53.9633 9.54236 60.1195 9.54236C65.9239 9.54236 68.4919 13.0602 68.4919 18.2666V21.2567H56.6017C56.7072 23.8247 57.8681 24.9504 60.9989 24.9504C63.0393 24.9504 65.0796 24.5635 67.0144 23.8247L68.0346 27.6943C66.5571 28.4683 63.4966 29.0663 60.7879 29.0663C53.6115 29.0311 50.938 25.4781 50.938 19.9903ZM56.6017 17.5278H63.4262V17.0705C63.4262 15.0302 62.6171 13.412 60.1195 13.412C57.5867 13.412 56.6017 15.0302 56.6017 17.5278Z" fill="#20484F"/>
<path d="M89.4583 19.8847C89.4583 25.0911 86.9606 29.031 81.7543 29.031C78.94 29.031 76.97 27.6239 76.1961 25.8298V28.6441H70.849V0.571841L76.5127 0.0793457V12.5676C77.3218 10.9142 79.1511 9.57747 81.7894 9.57747C86.9606 9.57747 89.4935 13.4823 89.4935 18.7238L89.4583 19.8847ZM83.7946 18.5831C83.7946 15.9447 82.7744 13.9747 80.0657 13.9747C77.7439 13.9747 76.5127 15.6281 76.5127 18.3017V20.2717C76.5127 22.9452 77.7791 24.5986 80.0657 24.5986C82.7744 24.5986 83.7946 22.6286 83.7946 19.9902V18.5831Z" fill="#20484F"/>
<path d="M91.3228 19.744V18.7942C91.3228 13.412 94.3833 9.54236 100.61 9.54236C106.837 9.54236 109.897 13.412 109.897 18.7942V19.744C109.897 25.1263 106.837 28.9959 100.61 28.9959C94.3833 28.9959 91.3228 25.1615 91.3228 19.744ZM104.268 18.4073C104.268 15.9448 103.248 13.9748 100.61 13.9748C97.9715 13.9748 96.9513 15.9448 96.9513 18.4073V20.1662C96.9513 22.6287 97.9715 24.5986 100.61 24.5986C103.248 24.5986 104.268 22.6287 104.268 20.1662V18.4073Z" fill="#20484F"/>
<path d="M111.832 19.744V18.7942C111.832 13.412 114.892 9.54236 121.119 9.54236C127.345 9.54236 130.406 13.412 130.406 18.7942V19.744C130.406 25.1263 127.345 28.9959 121.119 28.9959C114.892 28.9959 111.832 25.1615 111.832 19.744ZM124.777 18.4073C124.777 15.9448 123.757 13.9748 121.119 13.9748C118.48 13.9748 117.46 15.9448 117.46 18.4073V20.1662C117.46 22.6287 118.48 24.5986 121.119 24.5986C123.757 24.5986 124.777 22.6287 124.777 20.1662V18.4073Z" fill="#20484F"/>
<path d="M138.18 18.8645L143.774 9.92928H149.754L143.914 19.1812L150 28.6441H143.985L138.18 19.4978V28.6441H132.552V0.571863L138.18 0.0441895" fill="#20484F"/>
</g>
<defs>
<clipPath id="clip0_211_586">
<rect width="150" height="29.04" fill="white"/>
</clipPath>
</defs>
</svg>

<svg width="150" height="30" fill="none" xmlns="http://www.w3.org/2000/svg"><g clip-path="url(#a)" fill="#20484F"><path d="M11.75 4.582c-1.76 0-2.287.774-2.287 2.498v2.85h4.714l-.457 4.643H9.463v14.036H3.799V14.573H0V9.964h3.8V7.185C3.8 2.472 5.698.01 10.94.01c1.091 0 2.217.07 3.307.211v4.362M14.564 18.689c0-5.207 2.462-9.147 7.669-9.147 2.814 0 4.538 1.443 5.382 3.272v-2.85h5.417v18.68H27.58V25.83c-.774 1.794-2.568 3.201-5.383 3.201-5.17 0-7.668-3.905-7.668-9.146l.035-1.196Zm5.663 1.266c0 2.78 1.02 4.644 3.659 4.644 2.322 0 3.483-1.689 3.483-4.363v-1.9c0-2.673-1.196-4.361-3.483-4.361-2.638 0-3.659 1.83-3.659 4.643v1.337ZM44.782 9.542c2.18 0 4.292.458 5.417 1.267l-1.266 4.01a8.66 8.66 0 0 0-3.764-.844c-3.06 0-4.398 1.759-4.398 4.784v1.09c0 3.026 1.337 4.785 4.398 4.785a8.695 8.695 0 0 0 3.764-.88l1.266 4.01c-1.125.775-3.201 1.267-5.417 1.267-6.649 0-9.64-3.553-9.64-9.287v-.88c0-5.734 2.991-9.322 9.64-9.322ZM50.938 19.99v-1.653c0-5.312 3.025-8.795 9.181-8.795 5.805 0 8.373 3.518 8.373 8.725v2.99h-11.89c.105 2.568 1.266 3.693 4.397 3.693 2.04 0 4.08-.386 6.015-1.125l1.02 3.87c-1.477.773-4.537 1.371-7.246 1.371-7.176-.035-9.85-3.588-9.85-9.076Zm5.664-2.462h6.824v-.457c0-2.04-.809-3.659-3.306-3.659-2.533 0-3.518 1.618-3.518 4.116ZM89.458 19.885c0 5.206-2.497 9.146-7.704 9.146-2.814 0-4.784-1.407-5.558-3.201v2.814H70.85V.572l5.664-.493v12.489c.809-1.654 2.638-2.99 5.276-2.99 5.172 0 7.704 3.904 7.704 9.146l-.035 1.16Zm-5.663-1.302c0-2.638-1.02-4.608-3.73-4.608-2.321 0-3.552 1.653-3.552 4.327v1.97c0 2.673 1.266 4.327 3.553 4.327 2.708 0 3.729-1.97 3.729-4.609v-1.407ZM91.323 19.744v-.95c0-5.382 3.06-9.252 9.287-9.252s9.287 3.87 9.287 9.252v.95c0 5.382-3.06 9.252-9.287 9.252s-9.287-3.834-9.287-9.252Zm12.945-1.337c0-2.462-1.02-4.432-3.658-4.432s-3.659 1.97-3.659 4.432v1.76c0 2.462 1.02 4.432 3.659 4.432 2.638 0 3.658-1.97 3.658-4.433v-1.759ZM111.832 19.744v-.95c0-5.382 3.06-9.252 9.287-9.252 6.226 0 9.287 3.87 9.287 9.252v.95c0 5.382-3.061 9.252-9.287 9.252-6.227 0-9.287-3.834-9.287-9.252Zm12.945-1.337c0-2.462-1.02-4.432-3.658-4.432-2.639 0-3.659 1.97-3.659 4.432v1.76c0 2.462 1.02 4.432 3.659 4.432 2.638 0 3.658-1.97 3.658-4.433v-1.759ZM138.18 18.864l5.594-8.935h5.98l-5.84 9.252L150 28.644h-6.015l-5.805-9.146v9.146h-5.628V.572l5.628-.528"/></g><defs><clipPath id="a"><path fill="#fff" d="M0 0h150v29.04H0z"/></clipPath></defs></svg>
